X: 1
T: Laride
M: 4/4
L: 1/8
K: Em
"Em"E4 B4 | "(D)" A2c2 "Em"B4 | "D"A3B AGF2 | "(C)" G2 "D"A2 "Em"B4 |
"Em"E4 B4 | "(D)"A2c2 "Em"B4 | "D"A3B AGF2 | "(C)" G2 "D"F2 "Em"E4 |
"Em(C)" E4 G4 | G2E2 "D"F4 | F2AB AGF2 | "Em"G2 A2 B4 |
"Em(C)" E4 G4 | G2E2 "D"F4 | F2AB AGF2 | "(C)" G2 "D"F2 "Em"E4 |

